X: 89
T: Taiyang guangmang zhao yao zhai
%%abc-version 2.0
%%abcx-abcm2ps-target-version 5.9.1 (29 Sep 2008)
%%abc-creator hum2abc beta
%%abcx-conversion-date 2013/10/02 07:44:27
%%abc-edited-by Helmut Schaffrath
%%humdrum-veritas 3038732251
%%humdrum-veritas-data 241992982
%%continueall 1
%%barnumbers 0
L: 1/8
M: 2/4
K: C
d G B A [I:setbarnb 1]| 
G4 | 
G G c A/ c/ | 
d3e | 
G c B3/ A/ | 
G AG2 | 
c A/ c/ d A | 
G4 | 
G G B A | 
G4 | 
G G c A/ c/ | 
d3e | 
G c B3/ A/ | 
G AG2 | 
c A/ c/ d A | 
G4 | 
G G d A/ c/ | 
d3e | 
G G B A | 
G4 | 
G G d d | 
B3A | 
G G B A | 
G4 | 
d G B A | 
G4 | 
G G c A/ c/ | 
d3e | 
G c B3/ A/ | 
G AG2 | 
c A/ c/ d A | 
G4 | 
G G B A | 
G4 | 
G G c A/ c/ | 
d3e | 
G c B3/ A/ | 
G AG2 | 
c A/ c/ d A | 
G4 | 
G G d A/ c/ | 
d3e | 
G G B A | 
G4 | 
G G d d | 
B3A | 
G G B A | 
G z B A | 
G4- | 
G4 | 
d G B A | 
G4 | 
G G c A/ c/ | 
d4 | 
G c B A | 
G AG2 | 
c A/ c/ d A | 
G4 | 
G G d A/ c/ | 
d3e | 
G G B A | 
G4 | 
G G d d | 
B3A | 
G G B A | 
G2z2 | 
d G B A | 
G4 | 
G G c A/ c/ | 
d4 | 
G c B A | 
G AG2 | 
c A/ c/ d A | 
G4 | 
G G d A/ c/ | 
d3e | 
G G B A | 
G4 | 
G G d d | 
B3A | 
G G B A | 
G2z2 | 
G2G G | 
g2g2 | 
d4- | 
d3e | 
d G B A | 
G2g2 | 
g4- | 
g2d2 | 
g4- | 
g4- | 
g4- | 
gz3 |]  



